X:1
T:Galilean, 87.87 D
T:Joseph Barnby, 1883
T:Galilean, 87.87 D
T:Public Domain
C:Joseph Barnby, 1883
Z:Public Domain
%%score ( 1 2 ) ( 3 4 )
L:1/8
M:4/4
K:G
V:1 treble 
V:2 treble 
V:3 bass 
V:4 bass 
V:1
 [DB]2 [DA]2 [DB]2 [Dd]2 | [Ec]2 [EA]2 [DG]2 [DF]2 | [B,G]2 [CE]2 D2 [DB]2 | [DA]2 [B,G]2 [DA]4 | %4
 [DB]2 [DA]2 [DB]2 [Dd]2 | [Ec]2 [EA]2 [DG]2 [DF]2 | [B,G]2 [CE]2 D2 [DB]2 | [DA]3 [DG] [DG]4 | %8
 [FA]3 [GB] [GB]2 [EA]2 | [DA]2 [Fd]2 [D^c]2 [DB]2 | [DA]3 [DB] [DA]2 [Fd]2 | [Fd]2 [Ae]2 [Fd]4 | %12
 [DB]2 [DA]2 [DB]2 [Dd]2 | [Ec]2 [EA]2 [DG]2 [DF]2 | [B,G]2 [CE]2 D2 [DB]2 | [DA]3 [B,G] [B,G]4 |] %16
V:2
 x8 | x8 | x4 D2 x2 | x8 | x8 | x8 | x4 D2 x2 | x8 | x8 | x8 | x8 | x8 | x8 | x8 | x4 D2 x2 | x8 |] %16
V:3
 G,2 [D,F,]2 [G,,G,]2 [B,,G,]2 | [C,G,]2 [C,C]2 [D,B,]2 [D,A,]2 | %2
 [E,G,]2 [C,G,]2 [B,,G,]2 [G,,G,]2 | [D,F,]2 [E,G,]2 [D,F,]4 | G,2 [D,F,]2 [G,,G,]2 [B,,G,]2 | %5
 [C,G,]2 [C,C]2 [D,B,]2 [D,A,]2 | [E,G,]2 [C,G,]2 [B,,G,]2 [G,,G,]2 | [D,F,]3 [G,B,] [G,B,]4 | %8
 [D,D]3 [G,D] [E,E]2 [A,^C]2 | [F,A,]2 [D,A,]2 [G,,G,]2 [B,,G,]2 | [D,F,]3 G, [F,A,]2 [D,A,]2 | %11
 [A,,A,]2 [A,^C]2 [D,D]4 | G,2 [D,F,]2 [G,,G,]2 [B,,G,]2 | [C,G,]2 [C,C]2 [D,B,]2 [D,A,]2 | %14
 [E,G,]2 [C,G,]2 [B,,G,]2 [G,,G,]2 | [D,F,]3 [G,,G,] [G,,G,]4 |] %16
V:4
 G,2 x6 | x8 | x8 | x8 | G,2 x6 | x8 | x8 | x8 | x8 | x8 | x3 G, x4 | x8 | G,2 x6 | x8 | x8 | x8 |] %16

